assets/Leaf fluttering in wind/Flat/leaf_fluttering_in_wind_flat.svg

<svg width="32" height="32" viewBox="0 0 32 32" fill="none" xmlns="http://www.w3.org/2000/svg">
<path d="M4.45 6.52C4.32 6.52 4.19 6.47 4.1 6.37C3.9 6.17 3.9 5.86 4.1 5.66C6.47 3.3 9.61 2 12.96 2C14.19 2 15.42 2.18 16.59 2.54C16.85 2.62 17 2.9 16.92 3.16C16.84 3.43 16.56 3.58 16.3 3.49C15.22 3.17 14.09 3 12.96 3C9.88 3 6.98 4.2 4.81 6.38C4.71 6.48 4.58 6.52 4.45 6.52Z" fill="#D3D3D3"/>
<path d="M2.5 16.48C2.22 16.48 2 16.26 2 15.98C2 9.94002 6.92 5.02002 12.96 5.02002C13.24 5.02002 13.46 5.24002 13.46 5.52002C13.46 5.80002 13.24 6.02002 12.96 6.02002C7.47 6.02002 3 10.49 3 15.98C3 16.26 2.78 16.48 2.5 16.48Z" fill="#D3D3D3"/>
<path d="M22.31 16.48C22.31 16.76 22.53 16.98 22.81 16.98C24.3 16.98 25.73 16.53 26.94 15.67C28.86 14.32 30 12.12 30 9.78003C30 9.51003 29.78 9.28003 29.5 9.28003C29.22 9.28003 29 9.50003 29 9.78003C29 11.8 28.01 13.69 26.37 14.86C25.32 15.59 24.09 15.98 22.81 15.98C22.53 15.98 22.31 16.2 22.31 16.48Z" fill="#D3D3D3"/>
<path d="M28 6.42998V4.47998L27.31 4.99998H21.96C17.79 4.99998 14.41 8.52998 14.41 12.7V13.13C14.41 13.6 14.79 13.98 15.26 13.98H20.45C24.62 13.98 28 10.6 28 6.42998Z" fill="#00D26A"/>
<path d="M5 18.88V16.01L6 17H13.89C20.04 17 25.03 21.99 25.03 28.14V28.77C25.03 29.46 24.47 30.02 23.78 30.02H16.14C9.99 30.02 5 25.03 5 18.88Z" fill="#00D26A"/>
<path d="M18.67 11.35C18.6 11.39 18.51 11.41 18.43 11.41C18.25 11.41 18.07 11.31 17.98 11.14C17.84 10.89 17.93 10.58 18.18 10.45L26.26 6.04002C26.7 5.79002 26.98 5.33002 26.98 4.82002V2.53002C26.98 2.25002 27.21 2.02002 27.49 2.02002C27.77 2.02002 28 2.25002 28 2.53002V4.83002C28 5.71002 27.52 6.51002 26.75 6.94002L18.67 11.35Z" fill="#008463"/>
<path d="M18.75 26.12C18.87 26.18 18.99 26.21 19.11 26.21C19.37 26.21 19.63 26.07 19.76 25.82C19.96 25.45 19.82 25 19.46 24.8L7.56 18.3C6.91 17.94 6.5 17.26 6.5 16.51V13.13C6.5 12.72 6.16 12.38 5.75 12.38C5.34 12.38 5 12.72 5 13.13V16.51C5 17.81 5.71 19 6.85 19.62L18.75 26.12Z" fill="#008463"/>
</svg>

<svg xmlns="http://www.w3.org/2000/svg" width="32" height="32" fill="none"><path fill="#D3D3D3" d="M4.45 6.52a.47.47 0 0 1-.35-.15c-.2-.2-.2-.51 0-.71C6.47 3.3 9.61 2 12.96 2c1.23 0 2.46.18 3.63.54a.5.5 0 0 1 .33.62c-.08.27-.36.42-.62.33A11.79 11.79 0 0 0 12.96 3C9.88 3 6.98 4.2 4.81 6.38c-.1.1-.23.14-.36.14Z"/><path fill="#D3D3D3" d="M2.5 16.48c-.28 0-.5-.22-.5-.5C2 9.94 6.92 5.02 12.96 5.02c.28 0 .5.22.5.5s-.22.5-.5.5C7.47 6.02 3 10.49 3 15.98c0 .28-.22.5-.5.5ZM22.31 16.48c0 .28.22.5.5.5 1.49 0 2.92-.45 4.13-1.31A7.203 7.203 0 0 0 30 9.78c0-.27-.22-.5-.5-.5s-.5.22-.5.5c0 2.02-.99 3.91-2.63 5.08a6.21 6.21 0 0 1-3.56 1.12c-.28 0-.5.22-.5.5Z"/><path fill="#00D26A" d="M28 6.43V4.48l-.69.52h-5.35c-4.17 0-7.55 3.53-7.55 7.7v.43c0 .47.38.85.85.85h5.19A7.55 7.55 0 0 0 28 6.43ZM5 18.88v-2.87L6 17h7.89c6.15 0 11.14 4.99 11.14 11.14v.63c0 .69-.56 1.25-1.25 1.25h-7.64C9.99 30.02 5 25.03 5 18.88Z"/><path fill="#008463" d="M18.67 11.35a.514.514 0 0 1-.69-.21.498.498 0 0 1 .2-.69l8.08-4.41c.44-.25.72-.71.72-1.22V2.53c0-.28.23-.51.51-.51s.51.23.51.51v2.3c0 .88-.48 1.68-1.25 2.11l-8.08 4.41ZM18.75 26.12c.12.06.24.09.36.09.26 0 .52-.14.65-.39.2-.37.06-.82-.3-1.02l-11.9-6.5a2.045 2.045 0 0 1-1.06-1.79v-3.38c0-.41-.34-.75-.75-.75s-.75.34-.75.75v3.38c0 1.3.71 2.49 1.85 3.11l11.9 6.5Z"/></svg>
